X: 5398
T: Buddy's
R: jig
M: 6/8
K: Gmajor
|:d|"G" BAG dBG|"C" AGE "D" D2 E|"Em" GAB dge|"Bm"dBd "C"e2 e|
"D" def "G" gdB|"C" cde "G" d2 G|"Am" ABc BAG|"D" DFA "G" G2:|
|:E|"D7" DED DEF|"G" GBd dBd|"C" ece "G" dBd|"D7" cAA FAE|
"D7" DED DEF|"G" GBd dBG|"Am" ABc BAG|"D" DFA "G" G2:|

